X:6525
T:Untitled reel
A:North-West
M:C|
N:P19 1/2
O:England
R:Reel
%%TUNEURL: http://www.leeds.ac.uk/music/Info/RRTuneBk/gettune/00000585.html
%%ID:00000585
K:C
ef |\
gcec gcec |gcec ad de/2f/2 |\
gcec gcec |fagf ecc2      ::
c |\
GcEc Gcec |GcEc dDDc       |GcEc Gceg |fagf ecc2 |
GcEc Gcec |GcEc dD Df/2g/2 |afge fdec |fagf ecc2:|
